X:125
T:A penny worth of wit
Z:Jack Campin - http://www.campin.me.uk
S:Blaikie MS (NLS MS.1578) p37, Blaikie #119
M:C
L:1/8
V:1 midi program 1 74
V:2 midi program 1 46 bass middle = d transpose -24
Q:1/4=90
K:D Minor
[V:1] F2|ABAG F2E2|D4   z2A2|df````ed G2A2|d4   z2
[V:2] z2|d2d2 a2A2|d2A2 D2z2|d2d2     g2a2|d2D2 d2
%
[V:1] A2|dfed c2D2|F4   z2F2|GA/B/ cA GFE2|D4   z2|]
[V:2] z2|d2d2 e2f2|d2A2 d2z2|g2    f2 a2A2|d4   z2|]

W:Transcription (c) Jack Campin 2009, no mirroring or republication without permission

